!!!COM:	Bach, Johann Sebastian
!!!OMV:	Oh God, how many heart pains
!!!OTL:	Oh God, how many heart pains
**kern	**fb	**kern	**kern	**kern	**kern
*part5	*part5	*part4	*part3	*part2	*part1
*staff5	*	*staff4	*staff3	*staff2	*staff1
*I"Continuo	*	*I"Voice	*I"Voice	*I"Voice	*I"Voice
*I'Cont.	*	*I'V	*I'V	*I'V	*I'V
*clefF4	*	*clefF4	*clefGv2	*clefG2	*clefG2
*Trd0c0	*	*	*	*	*
*k[]	*	*k[]	*k[]	*k[]	*k[]
*M4/4	*	*M4/4	*M4/4	*M4/4	*M4/4
8AAL	.	8AAL	4A	8cL	4e
8BBJ	.	8BBJ	.	8dJ	.
=2	=2	=2	=2	=2	=2
8CL	6	8CL	8AL	8eL	4a
8DJ	.	8DJ	8cJ	8f	.
4E	.	4E	4B	8e	4g
.	.	.	.	8dJ	.
4A	6	4A	4A	8cL	4f
.	.	.	.	8dJ	.
4G	6	4G	8BL	4e	4e
.	.	.	8cJ	.	.
=3	=3	=3	=3	=3	=3
2F	6	2F	8dL	2A	2d
.	.	.	8cJ	.	.
.	.	.	8BL	.	.
.	.	.	8AJ	.	.
4E;	#	4E;	4G#X;	4B;	4e;
4G#X	6	4G#X	4B	4e	4b
=4	=4	=4	=4	=4	=4
8AL	.	8AL	4.A	4e	4cc
8E	.	8E	.	.	.
8F	5	8F	.	4a	4cc
8CJ	6	8CJ	8e	.	.
8DL	6 5	8DL	8fL	4a	4b
8BBJ	.	8BBJ	8dJ	.	.
4E	#	4E	8eL	4g#X	4b
.	.	.	8BJ	.	.
=	=	=	=	=	=
2.AA;	.	2.AA;	2.c;	2.e;	2.a;
=5:|!	=5:|!	=5:|!	=5:|!	=5:|!	=5:|!
!!linebreak:original
4A	8	4A	4e	8aL	4cc
.	7	.	.	8gJ	.
=6	=6	=6	=6	=6	=6
4D	6	4D	8dL	4f	8bL
.	5	.	8cJ	.	8aJ
4E	8 5	4E	4B	8eL	4g
.	7	.	.	8dJ	.
8FL	.	8FL	4A	4c	4a
8EJ	.	8EJ	.	.	.
4D	6	4D	4d	4f	4b
=7	=7	=7	=7	=7	=7
2C	4	2C	2G	4f	2cc
.	3	.	.	8eL	.
.	2	.	.	8dJ	.
4C;	3	4C;	4G;	4e;	4cc;
4C	.	4C	4c	4e	4g
=8	=8	=8	=8	=8	=8
8FL	.	8FL	4c	4f	4a
8E	.	8E	.	.	.
8D	-r6 4 2	8D	4B-X	4e	4g
8C#XJ	.	8C#XJ	.	.	.
8DL	9	8DL	4A	4e	4f
8E	.	8E	.	.	.
8F	6	8F	4A	4d	4f
8GJ	.	8GJ	.	.	.
=9	=9	=9	=9	=9	=9
2.A;	#	2.A;	2.A;	2.c#X;	2.e;
8EL	nr6	8EL	8GL	4e	4cc
8F#XJ	.	8F#XJ	8AJ	.	.
=10	=10	=10	=10	=10	=10
8GL	.	8GL	4B	4d	8bL
8A	.	8A	.	.	8ccJ
8B	6	8B	4B	4g	4dd
8GJ	.	8GJ	.	.	.
8EL	6	8EL	8BL	8gL	4cc
8F#X	6 5	8F#X	8AJ	8d	.
8G	9	8G	8BL	8d	4b
8EJ	3	8EJ	16cL	8gJ	.
.	.	.	16dJJ	.	.
=11	=11	=11	=11	=11	=11
!!pagebreak:original
8CL	6 5	8CL	4e	4g	2a
8AAJ	.	8AAJ	.	.	.
4D	#	4D	4d	4f#X	.
4GG;	.	4GG;	4d;	4g;	4b;
4GG#X	6	4GG#X	4B	8eL	4e
.	5	.	.	8dJ	.
=12	=12	=12	=12	=12	=12
8AAL	6	8AAL	4A	4c	4f
8BBJ	.	8BBJ	.	.	.
2C	3	2C	4G	4c	4e
.	4 2	.	4A	8fL	4d
.	.	.	.	8eJ	.
4BB	6	4BB	[4B	[4d	4g
=13	=13	=13	=13	=13	=13
4C	9 7	4C	8BL]	8dL]	2.e;
.	7 #5\	.	8G#XJ	8BJ	.
8BBL	7 4 2	8BBL	4A	4c	.
8AAJ	.	8AAJ	.	.	.
4E;	#	4E;	4G#;	4B;	.
=||	=||	=||	=||	=||	=||
*-	*-	*-	*-	*-	*-
!!!system-decoration: s1,s2,s3,s4,s5
